src/assets/selectIcons/strumento_15.svg

<svg xmlns="http://www.w3.org/2000/svg" viewBox="0 0 512 512" style="height: 512px; width: 512px;"><path d="M0 0h512v512H0z" fill="#000" fill-opacity="1"></path><g class="" transform="translate(0,0)" style=""><path d="M409.248 29.684c3.828 12.413 9.872 22.882 19.256 31.27 10.446 9.34 25.473 16.427 47.517 19.835-8.642-26.622-29.204-43.506-66.772-51.106zm-14.38 13.21c-2.17 7.77-3.924 16.89-6.038 24.815 2.105 13.02 10.736 23.494 20.97 30.718 5.298 3.74 10.93 6.518 15.74 8.176 4.367 1.506 7.928 1.833 9.284 1.798 10.123-4.084 19.774-8.003 27.32-11.963-19.234-4.405-34.26-11.893-45.638-22.067-9.954-8.9-16.9-19.664-21.637-31.48zM359.087 66.98c1.425 19.454 7.056 35.45 18.18 47.17 12.518 13.19 32.85 22.053 65.656 23.135-.76-2.868-1.82-5.89-3.23-9.06-.303-.682-.633-1.37-.965-2.057l-.79.11c-5.922.82-11.746-.41-18.265-2.66-6.52-2.247-13.513-5.733-20.25-10.487-13.235-9.34-25.767-23.95-28.567-43.506-4.077-1.236-8.03-2.127-11.77-2.645zm-17.99.57c-5.79 1.495-10.09 4.375-12.754 8.302-4.722 6.955-4.81 17.894 1.217 31.45 6.024 13.554 18.04 28.607 34.45 40.827 16.41 12.22 33.933 19.162 48.136 20.67 14.204 1.51 24.04-2.167 28.762-9.122.896-1.32 1.622-2.784 2.174-4.38-36.37-1.108-62.263-11.254-78.873-28.755-14.836-15.63-21.543-36.268-23.114-58.99zm-112.367 40.42c-2.578.033-5.56.327-8.615.944-6.11 1.234-12.59 3.6-17.375 6.252-4.785 2.65-7.348 6.072-7.267 5.844l-.008.023-.01.026c-14.557 40.605-22.74 81.154-26.424 119.723.542-.242 1.075-.49 1.618-.73 15.643-6.942 32.042-13.412 48.895-18.987 4.993-36.947 12.116-72.98 17.67-110.75-.047-.224-.078-.57-.164-.668-.142-.156-.71-.64-2.142-1.06-1.433-.42-3.603-.648-6.18-.615zm27.684 11.63c-.792-.003-1.59.005-2.387.01-5.035 33.06-11.004 64.28-15.562 95.648 28.016-7.912 56.962-12.99 85.558-13.307 13.124-.146 26.172.726 39.024 2.766-.228-11.615-.755-23.75-1.584-36.415-2.54-1.658-5.067-3.41-7.568-5.274-14.78-11.005-26.613-23.993-34.71-37.487-18.547-2.153-37.928-5.467-59.02-5.897-1.244-.025-2.494-.04-3.75-.044zm-86.105 20.386c-16.768 8.332-34.632 19.79-53.812 35.375-48.44 39.358-67.29 89.586-68.45 136.283 7.318-5.54 16.118-11.827 26.325-18.603 20.598-13.675 46.584-29.165 75.834-43.457 2.675-35.187 8.91-72.17 20.102-109.598zm209.79 38.518c.546 10.29.91 20.28 1.056 29.924 4.237 1.074 8.445 2.28 12.62 3.648-1.557-10.684-2.98-20.677-3.868-29.697-3.254-1.11-6.53-2.41-9.808-3.874zm-50.864 41.637c-1.795-.017-3.594-.01-5.396.013-49.042.673-100.334 16.134-145.89 36.35-36.446 16.173-69.07 35.233-93.622 51.533-12.276 8.15-22.54 15.613-30.22 21.636-7.452 5.845-12.548 10.57-14.018 12.217-4.238 6.17-7.326 26.743-4.412 41.902 1.473 7.667 4.37 13.902 6.703 16.36 2.055 2.162 2.33 2.648 5.266 1.3 149.357-153.41 299.423-134.323 367.02-134.576.004-.17-.09-.05.006-.48.437-1.952.406-6.08-.447-10.51-.854-4.432-2.404-9.233-4.125-13.097-1.432-3.213-3.003-5.448-3.733-6.385-24.053-11.125-50.198-16.023-77.13-16.265zm29.772 64.052c-36.22.19-79.797 3.29-127.686 18.88.005 37.683 4.587 77.873 17.182 123.456 11.903-2.708 22.84-6.48 32.822-11.395-1.527-2.203-2.997-4.336-4.283-6.235-1.376-2.03-2.566-3.82-3.508-5.295-.942-1.475-1.398-1.8-2.38-4.257l16.712-6.686c-.315-.79-.302-.782-.11-.424.19.358.557 1.068.95 1.684.787 1.232 1.913 2.928 3.236 4.88 1.456 2.15 3.17 4.632 4.97 7.223 7.838-5.41 14.96-11.716 21.376-18.962 11.918-13.463 21.59-30.53 28.872-51.583l-11.77-2.277 3.42-17.672 13.555 2.624c2.72-10.468 4.934-21.78 6.64-33.96zm18.297.11c-1.76 13.298-4.115 25.725-7.073 37.308l12.125 2.346-3.42 17.67-13.806-2.67c-8.043 24.044-19.125 43.952-33.364 60.034-7.39 8.346-15.574 15.56-24.516 21.72 4.183 5.897 7.668 10.782 7.668 10.782l-14.63 10.488s-3.926-5.503-8.542-12.017c-11.684 5.995-24.44 10.53-38.203 13.738 2.102 6.75 4.38 13.617 6.84 20.61 35.275-9.565 69.29-27.967 97.933-53.252 36.618-32.324 44.638-79.417 43.202-126.274-7.524-.14-15.59-.348-24.213-.485zM213.52 309.398c-14.842 5.707-30.04 12.67-45.514 21.163.44 6.155.974 12.196 1.596 18.106 6.714 63.8 24.172 113.214 35.207 130.86.405.22.858.477 1.547.734 1.758.655 4.275 1.378 7.143 1.99 5.735 1.224 12.928 2.02 19.21 1.85 6.284-.17 11.603-1.674 13.202-2.766.8-.546.69-.58.715-.672.026-.09.234-.792-.525-2.85l-.004-.013-.006-.015c-23.465-64.19-31.912-118.596-32.572-168.387zm-62.77 31.225c-26.05 16.06-52.765 36.623-79.75 62.912 6.44 10.74 13.832 19.65 21.664 26.063l.154.125.15.132c25.377 22.736 55.29 35.62 86.716 40.108-2.678-6.23-5.332-13.262-7.9-21.026-8.723-.56-17.685-1.407-26.88-2.53l2.18-17.868c6.55.8 12.936 1.447 19.17 1.956-6.127-22.523-11.352-49.515-14.555-79.947-.345-3.27-.658-6.584-.95-9.927z" fill="#fff" fill-opacity="1"></path></g></svg>

<?xml version="1.0" encoding="UTF-8" standalone="no"?>
<!DOCTYPE svg PUBLIC "-//W3C//DTD SVG 1.1//EN" "http://www.w3.org/Graphics/SVG/1.1/DTD/svg11.dtd">
<svg width="100%" height="100%" viewBox="0 0 512 512" version="1.1" xmlns="http://www.w3.org/2000/svg" xmlns:xlink="http://www.w3.org/1999/xlink" xml:space="preserve" xmlns:serif="http://www.serif.com/" style="fill-rule:evenodd;clip-rule:evenodd;stroke-linejoin:round;stroke-miterlimit:2;">
    <rect x="0" y="0" width="512" height="512" style="fill-rule:nonzero;"/>
    <g>
        <path d="M195.473,121.011C195.473,121.011 195.473,121.01 195.473,121.01L195.473,121.011ZM256.414,119.6C255.622,119.597 254.824,119.605 254.027,119.61C248.992,152.67 243.023,183.89 238.465,215.258C266.481,207.346 295.427,202.268 324.023,201.951C337.147,201.805 350.195,202.677 363.047,204.717C362.819,193.102 362.292,180.967 361.463,168.302C358.923,166.644 356.396,164.892 353.895,163.028C339.115,152.023 327.282,139.035 319.185,125.541C300.638,123.388 281.257,120.074 260.165,119.644C258.921,119.619 257.671,119.604 256.415,119.6L256.414,119.6ZM170.309,139.986C153.541,148.318 135.677,159.776 116.497,175.361C68.057,214.719 49.207,264.947 48.047,311.644C55.365,306.104 64.165,299.817 74.372,293.041C94.97,279.366 120.956,263.876 150.206,249.584C152.881,214.397 159.116,177.414 170.308,139.986L170.309,139.986ZM380.099,178.504C380.645,188.794 381.009,198.784 381.155,208.428C385.392,209.502 389.6,210.708 393.775,212.076C392.218,201.392 390.795,191.399 389.907,182.379C386.653,181.269 383.377,179.969 380.099,178.505L380.099,178.504ZM359.007,284.193C322.787,284.383 279.21,287.483 231.321,303.073C231.326,340.756 235.908,380.946 248.503,426.529C260.406,423.821 271.343,420.049 281.325,415.134C279.798,412.931 278.328,410.798 277.042,408.899C275.666,406.869 274.476,405.079 273.534,403.604C272.592,402.129 272.136,401.804 271.154,399.347L287.866,392.661C287.551,391.871 287.564,391.879 287.756,392.237C287.946,392.595 288.313,393.305 288.706,393.921C289.493,395.153 290.619,396.849 291.942,398.801C293.398,400.951 295.112,403.433 296.912,406.024C304.75,400.614 311.872,394.308 318.288,387.062C330.206,373.599 339.878,356.532 347.16,335.479L335.39,333.202L338.81,315.53L352.365,318.154C355.085,307.686 357.299,296.374 359.005,284.194L359.007,284.193ZM377.304,284.303C375.544,297.601 373.189,310.028 370.231,321.611L382.356,323.957L378.936,341.627L365.13,338.957C357.087,363.001 346.005,382.909 331.766,398.991C324.376,407.337 316.192,414.551 307.25,420.711C311.433,426.608 314.918,431.493 314.918,431.493L300.288,441.981C300.288,441.981 296.362,436.478 291.746,429.964C280.062,435.959 267.306,440.494 253.543,443.702C255.645,450.452 257.923,457.319 260.383,464.312C295.658,454.747 329.673,436.345 358.316,411.06C394.934,378.736 402.954,331.643 401.518,284.786C393.994,284.646 385.928,284.438 377.305,284.301L377.304,284.303ZM150.75,340.623C124.7,356.683 97.985,377.246 71,403.535C77.44,414.275 84.832,423.185 92.664,429.598L92.818,429.723L92.968,429.855C118.345,452.591 148.258,465.475 179.684,469.963C177.006,463.733 174.352,456.701 171.784,448.937C163.061,448.377 154.099,447.53 144.904,446.407L147.084,428.539C153.634,429.339 160.02,429.986 166.254,430.495C160.127,407.972 154.902,380.98 151.699,350.548C151.354,347.278 151.041,343.964 150.749,340.621L150.75,340.623Z" style="fill:rgb(186,186,186);fill-rule:nonzero;"/>
        <path d="M195.473,121.011C195.398,121.23 197.961,117.813 202.74,115.166C207.525,112.514 214.005,110.148 220.115,108.914C223.17,108.297 226.152,108.003 228.73,107.97L228.728,107.972C231.305,107.939 233.475,108.167 234.908,108.587C236.34,109.007 236.908,109.491 237.05,109.647C237.136,109.745 237.167,110.091 237.214,110.315C231.66,148.085 224.537,184.118 219.544,221.065C202.691,226.64 186.292,233.11 170.649,240.052C170.106,240.292 169.573,240.54 169.031,240.782C172.715,202.213 180.898,161.664 195.455,121.059L195.465,121.033L195.473,121.011ZM359.087,66.98C362.827,67.498 366.779,68.389 370.856,69.625C373.656,89.181 386.188,103.791 399.423,113.131C406.16,117.885 413.153,121.371 419.673,123.618C426.192,125.868 432.016,127.098 437.938,126.278L438.728,126.168C439.06,126.855 439.39,127.543 439.693,128.225C441.103,131.395 442.163,134.417 442.923,137.285C410.117,136.203 389.785,127.34 377.267,114.15C366.143,102.43 360.512,86.434 359.087,66.98ZM341.097,67.55L341.095,67.552C342.666,90.274 349.373,110.912 364.209,126.542C380.819,144.043 406.712,154.189 443.082,155.297C442.53,156.893 441.804,158.357 440.908,159.677C436.186,166.632 426.35,170.309 412.146,168.799C397.943,167.291 380.42,160.349 364.01,148.129C347.6,135.909 335.584,120.856 329.56,107.302C323.533,93.746 323.621,82.807 328.343,75.852C331.007,71.925 335.307,69.045 341.097,67.55ZM329.235,220.141L329.237,220.139C356.169,220.381 382.314,225.279 406.367,236.404C407.097,237.341 408.668,239.576 410.1,242.789C411.821,246.653 413.371,251.454 414.225,255.886C415.078,260.316 415.109,264.444 414.672,266.396C414.576,266.826 414.67,266.706 414.666,266.876C347.069,267.129 197.003,248.042 47.646,401.452C44.71,402.8 44.435,402.314 42.38,400.152C40.047,397.694 37.15,391.459 35.677,383.792C32.763,368.633 35.851,348.06 40.089,341.89C41.559,340.243 46.655,335.518 54.107,329.673C61.787,323.65 72.051,316.187 84.327,308.037C108.879,291.737 141.503,272.677 177.949,256.504C223.505,236.288 274.797,220.827 323.839,220.154C325.641,220.131 327.44,220.124 329.235,220.141ZM213.52,309.398C214.18,359.189 222.626,413.595 246.091,477.785L246.097,477.8L246.101,477.813C246.86,479.871 246.652,480.573 246.626,480.663C246.601,480.755 246.711,480.789 245.911,481.335C244.312,482.427 238.993,483.931 232.709,484.101C226.427,484.271 219.234,483.475 213.499,482.251C210.631,481.639 208.114,480.916 206.356,480.261C205.667,480.004 205.214,479.747 204.809,479.527C193.774,461.881 176.316,412.467 169.602,348.667C168.98,342.757 168.446,336.716 168.006,330.561C183.48,322.068 198.677,315.105 213.52,309.398Z" style="fill:rgb(195,150,75);"/>
        <path d="M409.249,29.684C446.817,37.284 467.379,54.167 476.021,80.789C453.977,77.381 438.95,70.294 428.504,60.954C419.12,52.566 413.077,42.097 409.249,29.684ZM394.868,42.894L394.869,42.891C399.606,54.707 406.552,65.471 416.506,74.371C427.884,84.545 442.91,92.033 462.144,96.438C454.598,100.398 444.947,104.317 434.824,108.401C433.468,108.436 429.907,108.109 425.54,106.603C420.73,104.945 415.098,102.167 409.8,98.427C399.566,91.203 390.935,80.729 388.83,67.709C390.944,59.784 392.698,50.664 394.868,42.894Z" style="fill:rgb(141,122,35);"/>
    </g>
</svg>
